!!!!SEGMENT: pl-wnifc--6810-n_zientarski-romuald-teodor--la-priere-du-soir.krn
!!!cenid: 18xx:4055
!!!COM: Zientarski, Romuald Teodor
!!!COM-rismID: pe30001080
!!!CDT: ~1830-1874
!!!CNT: Polish
!!!OTL: La priére du Soir
!!!PDT:
!!!AGN:
!!!YEC: Copyright 2022 Narodowy Instytut Fryderyka Chopina (https://polishscores.org)
!!!YEM: License CC-BY-4.0 (https://creativecommons.org/licenses/by/4.0)
!!!SMS-siglum: PL-Wnifc
!!!SMS-shelfmark: 6810/n
!!!SMS-shelfwork: W
!!!SMS-variant:
!!!SMS-altvar:
!!!NIFC-rismSourceID: 1001158203
!!!NIFC-rismChildID: 1001158203
!!!NIFC-islandoraID: nifc:213618
!!!URL-pdf-islandora: https://repozytorium.nifc.pl/islandora/object/nifc%3A213618/datastream/PDF/view
!!!URL-scan: https://polish.musicsources.pl/pl/lokalizacje/galeria/druki-muzyczne/16930-la-priere-du-soir/2 @EN{Scan on Polish Music Sources Website} @PL{Skany w portalu Dziedzictwo Muzyki Polskiej w otwartym dostępie}
!!!IIIF:
!!!ONB-nifc:
!!!AIN: 2 piano
!!!key: B-
**kern	**fing	**kern	**fing	**dynam
*part2	*	*part1	*	*
*staff2	*	*staff1	*	*
*I"Piano	*	*I"Piano	*	*
*I'pf	*	*I'pf	*	*
*ICklav	*	*ICklav	*	*
*Ipiano	*	*Ipiano	*	*
*clefF4	*	*clefG2	*	*
*k[b-e-]	*	*k[b-e-]	*	*
*B-:	*	*B-:	*	*
*M3/4	*	*M3/4	*	*
!	!	!LO:TX:a:B:t=Andante. M.M. [quarter]=84.	!	!
*ped	*	*	*	*
(16DD/ 16D	.	(16d/ 16dd	.	ff
=1	=1	=1	=1	=1
4.GG/ 4.G	.	4.g^\ 4.gg	.	.
*Xped	*	*	*	*
16DD/LL 16D	.	16d/LL 16dd	.	.
16FF/JJ 16F	.	16f/JJ 16ff	.	.
!LO:TUP:b:problem:klamra łukowa	!	!LO:TUP:b:problem:klamra łukowa	!	!
12EE-/L 12E-	.	12e-/L 12ee-	.	.
12DD/ 12D	.	12d/ 12dd	.	.
12CC/J 12C	.	12c/J 12cc	.	.
=2	=2	=2	=2	=2
8.DD/L 8.D	.	8.d/L 8.dd	.	.
16BBB-/Jk 16BB-	.	16B-/Jk 16b-	.	.
4GGG/) 4GG	.	4G/) 4g	.	.
*	*	*	*	*^
8.r	.	8.r	.	<	.
!LO:N:vis=8	!	!LO:N:vis=8	!	!	!
(16F#X\	.	(16A</	.	.	p
=3	=3	=3	=3	=3	=3
2G\	.	2B-</	.	.	.
*	*	*	*below	*	*
4E-\	.	4G</ 4c<	4 1	[	.
*	*	*	*	*v	*v
=4	=4	=4	=4	=4
*	*	*^	*	*
!LO:N:vis=4	!	!	!	!	!
8D\)	.	8F#X</) 8d<	8ryy	5 2	.
*ped	*	*	*	*	*
8r	.	8ryy	8ryy	.	.
(2C^/	.	(4.f^/	(2A\	.	>
.	.	8en/)	.	.	]]
*Xped	*	*	*	*	*
!!LO:LB:g=original	!	!	!	!	!
=5	=5	=5	=5	=5	=5
*^	*	*	*	*	*
!	!	!	!LO:TX:a:i:t=cantando.	!	!	!
[2.Fn/	[2.BB-\)	1-2	(<[4.d/	4B-\)	3 2	.
.	.	.	.	8ryy	.	.
!	!	!	!LO:TUP:b:problem:klamra łukowa	!	!	!
.	.	.	24d/LL]	8ryy	.	p
.	.	.	24e-/	.	.	.
.	.	.	24d/JJ	.	.	.
.	.	.	8c#X/L	8ryy	.	.
.	.	.	8d/J)	8ryy	.	.
*	*	*	*v	*v	*	*
=6	=6	=6	=6	=6	=6
*	*	*	*	*above	*
8F/L]	2.BB-\]	.	4d/	3	.
8A-X/J	.	1	.	.	.
(4.G/	.	1	(4.e-/	.	.
8F/)	.	2	8d/)	.	.
=7	=7	=7	=7	=7	=7
*	*	*	*^	*	*
(2.E-^/	(2.FF^\	.	(<4.d^/	4A\	2 5	.
.	.	.	.	8ryy	.	.
.	.	.	8c/	8ryy	4	.
.	.	.	8G/L	8ryy	1	.
.	.	.	8A/J	8ryy	2	.
=8	=8	=8	=8	=8	=8	=8
8D/)	8BB-\)	.	4c/)	4ryy	3	.
8r	8r	.	.	.	.	.
*Xbrackettup	*	*	*	*	*	*
6G/	4En\	.	8r	8ryy	.	.
.	.	.	8b-/L	4c#X\	2 5	>
6A/	.	.	.	.	.	.
.	4ryy	.	8a/	.	4	.
6B-\	.	.	.	.	.	.
.	.	.	8g/J	8ryy	3	.
*	*	*	*v	*v	*	*
=9	=9	=9	=9	=9	=9
*ped	*	*	*	*	*
[2.B-/	[2.BB-\ [>2.F	.	(4.d^/ 4.f	.	] mf
!	!	!	!LO:TUP:b:problem:klamra łukowa	!	!
.	.	.	24d/LL 24f	.	.
.	.	.	24e-/ 24g	.	.
.	.	.	24d/JJ 24f	.	.
.	.	.	8c#X/L 8en	.	.
.	.	.	8d'/J) 8f	.	.
!!LO:LB:g=original	!	!	!	!	!
=10	=10	=10	=10	=10	=10
*	*	*	*^	*	*
4BB-\] 4F] 4B-]	4ryy	.	(<8f/L	4d\	.	.
*Xped	*	*	*	*	*	*
.	.	.	8b-/J)	.	.	.
!	!	!	!	!	!	!LO:HP:b=2
2G^/	8.GG\L	.	2d^\ 2b- 2dd	2ryy	.	<
.	16AA\K	.	.	.	.	.
.	8.BB-\	.	.	.	.	.
.	16BBn\Jk	.	.	.	.	[[
=11	=11	=11	=11	=11	=11	=11
!	!	!	!	!	!	!LO:HP:b:t=cresc
[2.C^/	4C\	.	(4.a^/ 4.cc	2c\	.	<
.	(2CC^\	.	.	.	.	.
.	.	.	8g/) 8b-	.	.	.
.	.	.	(<8a/L	4B-\ 4en	.	.
.	.	.	8g/J)	.	.	.
*	*	*	*v	*v	*	*
=12	=12	=12	=12	=12	=12
2C/]	2.FF\)	.	2A/ 2f	.	.
4r	.	.	8.r	.	.
.	.	.	16f/	.	.
*v	*v	*	*	*	*
=13	=13	=13	=13	=13
4F;\ 4c	.	(4a;\ [4ee-	2 5	.
4r;	.	44a\LLL 44ee-]	.	.
.	.	44cc\	3	.
.	.	44a\	2	.
.	.	44f\	1	.
.	.	44e-\	4	.
.	.	44c\	.	.
.	.	N(<44A</	.	.
.	.	44F</	.	.
.	.	44E-</	.	.
.	.	44C</	.	.
.	.	44AA</JJJ)	.	.
4FFF;</N) 4FF	.	4r;	.	.
!!LO:PB:g=original	!	!	!	!
=14||	=14||	=14||	=14||	=14||
*ped	*	*	*	*
!	!	!LO:TX:B:a:t=THÈME	!	!
!	!	!LO:TX:B:a:t=Cantando espressivo assai. M.M. = [quarter] 92.	!	!
8BBB-/ 8BB-	.	(4.f^\ 4.dd 4.ff	.	p
8r	.	.	.	.
4F\ 4B- 4d	.	.	.	.
.	.	8f\L 8dd 8ff	.	.
*Xped	*	*	*	*
4F\ 4A 4c	.	8en\ 8cc#X 8een	.	.
.	.	8f\J) 8dd 8ff	.	.
=15	=15	=15	=15	=15
*ped	*	*	*	*
8BBB-/ 8BB-	.	(8f\L 8dd 8ff	.	.
8r	.	8dd\J) 8ff 8ddd	.	.
*Xped	*	*	*	*
(4G\ 4B- 4e-	.	(4.ee-^<\ 4.gg 4.eee-	.	.
4F\) 4B- 4d	.	.	.	.
.	.	8dd\) 8ff 8ddd	.	.
=16	=16	=16	=16	=16
*	*	*^	*	*
*ped	*	*	*	*	*
8FFF/ 8FF	.	(4.dd^\ 4.ff 4.ddd	4.ryy	.	.
8r	.	.	.	.	.
4F\ 4A 4e-	.	.	.	.	.
.	.	8cc\ 8ee- 8ccc	8ryy	.	.
*Xped	*	*	*	*	*
4F\ 4c 4e-	.	4gg/	8g\L 8ee-	.	.
.	.	.	8a\J) 8aa	.	.
=17	=17	=17	=17	=17	=17
*^	*	*	*	*	*
*ped	*	*	*	*	*	*
!	!	!	!LO:TX:i:b:t=rall	!	!	!
8ryy	8BBB-/ 8BB-	.	4b-\ 4dd 4bb-	4ryy	.	.
8ryy	8r	.	.	.	.	.
(<4g/	2B-^\	.	8r	8rbb	.	.
.	.	.	(8bb-/L	4.b-\ 4.ee-	.	>
8f/L	.	.	8aa/	.	.	.
8e-/J)	.	.	8gg/J)	.	.	]]
*Xped	*	*	*	*	*	*
*v	*v	*	*	*	*	*
*	*	*v	*v	*	*
=18	=18	=18	=18	=18
!	!	!LO:TX:B:b:t=à tempo	!	!
8BBB-/ 8BB-	.	(4.f^\ 4.dd 4.ff	.	.
8r	.	.	.	.
4F\ 4B- 4d	.	.	.	.
.	.	8f\L 8dd 8ff	.	.
4F\ 4B- 4d	.	8en\ 8cc#X 8een	.	.
.	.	8f\J) 8dd 8ff	.	.
!!LO:LB:g=original	!	!	!	!
=19	=19	=19	=19	=19
8BBB-/ 8BB-	.	(8f\L 8dd 8ff	.	.
8r	.	8dd\J) 8ff 8ddd	.	.
(4G^\ 4B- 4e-	.	(4.ee-^\ 4.gg 4.eee-	.	.
4F\) 4B- 4d	.	.	.	.
.	.	8dd\) 8ff 8ddd	.	.
=20	=20	=20	=20	=20
*	*	*^	*	*
*ped	*	*	*	*	*
8FFF/ 8FF	.	(4.dd^\ 4.ff 4.ddd	4.ryy	.	.
8r	.	.	.	.	.
4F\ 4A 4e-	.	.	.	.	.
.	.	8cc\ 8ee- 8ccc	8ryy	.	.
4F\ 4c 4e-	.	4ee-/	8g\L 8gg	.	.
.	.	.	8a\J) 8aa	.	.
*Xped	*	*	*	*	*
*	*	*v	*v	*	*
=21	=21	=21	=21	=21
8B-'\ 8d	.	4b-'\ 4dd 4bb-	.	.
8r	.	.	.	.
4BBB-^^</ 4BB-	.	4r	.	.
4r	.	4r	.	.
=22!|:	=22!|:	=22!|:	=22!|:	=22!|:
*ped	*	*	*	*
8FFF#X/ 8FF#X	.	8dd'\L 8aa 8ccc 8ddd	.	.
8r	.	8dd'\J 8ddd	.	.
4D'\ 4F#X 4A 4c 4d	.	(4.ee-^\ 4.aa 4.ccc 4.eee-	.	.
*Xped	*	*	*	*
4D'\ 4F# 4A 4c 4d	.	.	.	.
.	.	8dd\) 8ddd	.	.
=23	=23	=23	=23	=23
*ped	*	*	*	*
8GGG/ 8GG	.	8gg\L 8bb-	.	.
8r	.	8dd'\J 8ddd	.	.
4D'\ 4G 4B- 4d	.	(4.ee-^\ 4.gg 4.bb- 4.eee-	.	.
4D'\ 4G 4B- 4d	.	.	.	.
.	.	8dd\) 8ddd	.	.
*Xped	*	*	*	*
!!LO:LB:g=original	!	!	!	!
=24	=24	=24	=24	=24
*	*	*^	*	*
*ped	*	*	*	*	*
8FFFn/ 8FFn	.	(8cc\L 8ccc	4ryy	.	.
8r	.	8ff\J)	.	.	.
4F'\ 4A 4e-	.	(4.g^\ 4.gg	2cc/	.	.
4F'\ 4A 4e-	.	.	.	.	.
.	.	8f\) 8ff	.	.	.
*Xped	*	*	*	*	*
=25	=25	=25	=25	=25	=25
*ped	*	*	*	*	*
8FFF/ 8FF	.	(8en\L 8een	4ryy	.	.
8r	.	8f\J) 8ff	.	.	.
!	!	!LO:TX:b:i:t=rit	!	!	!
2F;\ 2A 2e-	.	((4g-X;\ 4cc 4gg-X	4ryy	.	.
.	.	4f\)) 4ff	(8cc/L	.	.
.	.	.	8cc#X/J)	.	.
*Xped	*	*	*	*	*
*	*	*v	*v	*	*
=26	=26	=26	=26	=26
*ped	*	*	*	*
8BBB-/ 8BB-	.	(4.f^\ 4.dd 4.ff	.	.
8r	.	.	.	.
4F\ 4B- 4d	.	.	.	.
!	!	!LO:TX:b:i:t=á tempo	!	!
.	.	8f\L 8dd 8ff	.	.
4F\ 4B- 4d	.	8en\ 8cc#X 8een	.	.
.	.	8f\J) 8dd 8ff	.	.
*Xped	*	*	*	*
=27	=27	=27	=27	=27
*ped	*	*	*	*
8BBB-/ 8BB-	.	8f\L 8dd 8ff	.	<
8r	.	8b-\J 8dd 8bb-	.	.
4F\ 4B- 4d	.	(4dd^\ 4ff 4ddd	.	[ >
4F\ 4B- 4d	.	8cc\L 8ee- 8ccc	.	.
.	.	8b-\J) 8dd 8bb-	.	]]
*Xped	*	*	*	*
=28	=28	=28	=28	=28
*	*	*^	*	*
*ped	*	*	*	*	*
!	!	!	!	!	!LO:HP:b:t=rall e dim
8FFF/ 8FF	.	(4.ff^\ 4.aa 4.fff	4.ryy	.	>
8r	.	.	.	.	.
4F\ 4A 4e-	.	.	.	.	.
!	!	!LO:N:vis=4	!	!	!
.	.	8ee-\ 8eee-	8ryy	.	.
*Xped	*	*	*	*	*
4F\ 4c 4e-	.	4ee-/	8g\L 8gg	.	.
.	.	.	8a\J) 8aa	.	.
*	*	*v	*v	*	*
=29	=29	=29	=29	=29
*ped	*	*	*	*
8B-`\ 8d	.	4b-`\ 4dd 4bb-	.	.
8r	.	.	.	.
4BBB-^^</ 4BB-	.	4r	.	.
*Xped	*	*	*	*
4r	.	4r	.	.
!!LO:LB:g=original	!	!	!	!
=30:|!	=30:|!	=30:|!	=30:|!	=30:|!
*clefF4	*	*clefF4	*	*
*M4/4	*	*M4/4	*	*
*met(c)	*	*met(c)	*	*
*ped	*	*	*	*
!	!	!LO:TX:t=P:problem: w źródle brak zmiany klucza na basowy	!	!
!	!	!LO:TX:b:i:t=la melodia dolce marcata	!	!
!	!	!LO:TX:a:B:t=Tempo Giusto	!	!
!LO:TX:a:i:t=md	!	!LO:TX:b:i:t=m.s.	!	!
!LO:N:vis=8	!	!	!	!
16FFF^>\ 16FF	.	([2F</	.	p
*Xped	*	*	*	*
!LO:N:vis=8	!	!	!	!
16rEE	.	.	.	.
*ped	*	*	*	*
8AA>/ 8C> 8G>	.	.	.	.
8FFF\ 8FF	.	.	.	.
8rEE	.	.	.	.
8r>	.	8.F</L]	.	.
8ryy	.	.	.	.
.	.	16F</K	.	.
8AA>/ 8E-> 8G>	.	8G</	.	.
8r>	.	8A</J	.	.
*Xped	*	*	*	*
=31	=31	=31	=31	=31
*ped	*	*	*	*
8BBB-\ 8BB-	.	8.c</L	.	.
8rFF	.	.	.	.
.	.	16B-</Jk)	.	.
*Xped	*	*	*	*
8AA>/ 8D> 8F>	.	4F</	.	.
8r>	.	.	.	.
*ped	*	*	*	*
8BBB-\ 8BB-	.	8.rG<	.	.
8rEE	.	.	.	.
.	.	(16F<$/	.	.
8AA>/ 8D> 8F>	.	8en</L	.	.
8r>	.	8d</J	.	.
*Xped	*	*	*	*
=32	=32	=32	=32	=32
*ped	*	*	*	*
8FFF\ 8FF	.	8.d</L	.	.
8rFF	.	.	.	.
*Xped	*	*	*	*
.	.	16Bn</Jk	.	.
8AA>/ 8C> 8G>	.	4c</)	.	.
!LO:TX:t=P:problem: brak połowy pauzy	!	!	!	!
8r>	.	.	.	.
*ped	*	*	*	*
8FFF\ 8FF	.	8.rB<	.	.
8rEE	.	.	.	.
.	.	(16c<sS/	.	.
8AA>/ 8C> 8G>	.	8d</L	.	.
8r>	.	8e-</J	.	.
*Xped	*	*	*	*
!!LO:LB:g=original	!	!	!	!
=33	=33	=33	=33	=33
*ped	*	*	*	*
8BBB-\ 8BB-	.	8.g</L	.	.
8rDD	.	.	.	.
.	.	16en</Jk	.	.
*Xped	*	*	*	*
8D>\ 8F> 8B->	.	4f</)	.	.
8r>	.	.	.	.
*ped	*	*	*	*
8DDD\ 8DD	.	8.r<	.	.
8rDD	.	.	.	.
.	.	(16f</	.	.
8D>\ 8A>	.	8e-X</L	.	.
8r>	.	8d</J	.	.
*Xped	*	*	*	*
=34	=34	=34	=34	=34
*ped	*	*	*	*
8EEE-\ 8EE-	.	8.d</L	.	.
8rEE	.	.	.	.
.	.	16Bn</Jk	.	.
*Xped	*	*	*	*
8BB->\ 8E-> 8G>	.	4c</)	.	.
8r>	.	.	.	.
!	!	!LO:N:vis=8	!	!
*ped	*	*	*	*
8FFF#X\ 8FF#X	.	8.r<	.	.
8rEE	.	.	.	.
.	.	(<8qc</	.	.
.	.	16e-</)	.	.
8C>\ 8E-> 8F>	.	(>8d</L	.	.
8r>	.	8A</J	.	.
*Xped	*	*	*	*
=35	=35	=35	=35	=35
*ped	*	*	*	*
8GGG\ 8GG	.	8.d</L	.	.
8rFF	.	.	.	.
.	.	16c</Jk	.	.
*Xped	*	*	*	*
8BB->\ 8D> 8F>	.	4B-</)	.	.
8r>	.	.	.	.
*ped	*	*	*	*
8GGG\ 8GG	.	8.r<	.	.
8rFF	.	.	.	.
.	.	(16B-</	.	.
8BB->\ 8D> 8F>	.	8B-</L	.	.
8r>	.	8A</J)	.	.
*Xped	*	*	*	*
!!LO:PB:g=original	!	!	!	!
=36	=36	=36	=36	=36
*ped	*	*	*	*
!	!	!	!	!LO:HP:b:t=cresc
8EEE-\ 8EE-	.	(4.G</	.	<
*Xped	*	*	*	*
8rEE	.	.	.	.
*ped	*	*	*below	*
8GG>/ 8BB-> 8E#X>	.	.	.	.
8rD>	.	8G</	.	.
(<2EE-\ (<2E-y	.	N(<(4G</ 4g<	2	.
*Xped	*	*	*	*
.	.	(4c#X</	4	.
=37	=37	=37	=37	=37
*ped	*	*	*below	*
2DD\) 2DN)	.	2F#X</))) 2d<	5 2	.
*Xped	*	*	*	*
*ped	*	*	*	*
2CC;<\ 2C	.	2Fn<;/ 2A< 2e-< 2f<	.	.
*Xped	*	*	*	*
=38||	=38||	=38||	=38||	=38||
*clefF4	*	*clefG2	*	*
*M3/4	*	*M3/4	*	*
!!LO:TX:t=P:problem: w źródle brak klucza - po ukryciu w VHV niezgodność dźwięków	!	!	!	!
*ped	*	*	*	*
!	!	!LO:TX:a:B:t=Brillante. M.M.[quarter]=96	!	!
!	!	!LO:TUP:b:problem:klamra łukowa	!	!
8BBB-/ 8BB-	.	24d^^</LL 24f	.	p <
.	.	24F/	.	.
.	.	24d/ 24f	.	.
8r	.	24f/	.	.
.	.	24dd/ 24ff	.	.
.	.	24ff/JJ	.	.
*Xped	*	*	*	*
8F\ 8B- 8d	.	8ddd`\ 8fff	.	[
8rDD	.	16r	.	.
.	.	16F<'/ 16d 16f	.	f
4rDD	.	(8En<^>/L 8c#X 8en	.	.
.	.	8F</J) 8d 8f	.	.
!!LO:LB:g=original	!	!	!	!
=39	=39	=39	=39	=39
*ped	*	*Xtuplet	*	*
!	!	!LO:TUP:b:problem:klamra łukowa	!	!
8BBB-/ 8BB-	.	24d^^</LL 24f	.	p <
.	.	24F/	.	.
.	.	24d/ 24f	.	.
8r	.	24f/	.	.
.	.	24dd/ 24ff	.	.
.	.	24ff/JJ	.	.
*Xped	*	*	*	*
8F\ 8B- 8d	.	8ddd`\ 8fff	.	[
8r	.	16r	.	.
.	.	16d'/ 16f 16dd	.	f
4r	.	(8.e-^/L 8.g 8.ee-	.	.
.	.	16d/Jk) 16f 16dd	.	.
=40	=40	=40	=40	=40
*ped	*	*	*	*
8FFF/ 8FF	.	(24f/LL 24dd	5 2	<
.	.	24D/ 24F	.	.
.	.	24c/ 24e- 24f	5 4 2	.
8r	.	24f/	1	.
.	.	24cc/ 24ee- 24ff	.	.
.	.	24ff/JJ)	1	.
*Xped	*	*	*	*
8F\ 8A 8e-	.	8ccc`\ 8eee- 8fff	.	[
8r	.	16r	.	.
.	.	16c'/ 16cc	.	.
4r	.	(8G^/L 8g	.	.
.	.	8A/J) 8a	.	.
=41	=41	=41	=41	=41
8BBB-/ 8BB-	.	(24d^^</LL 24b-	.	<
.	.	24B-/	.	.
.	.	24d/ 24b-	.	.
8r	.	24b-/	.	.
.	.	24dd/ 24bb-	.	.
.	.	24bb-/JJ)	.	.
*	*	*8va	*	*
8B-\ 8d	.	8ddd`\ 8bbb-	.	[
8r	.	16r	.	f
*	*	*X8va	*	*
!	!	!LO:TX:b:i:t=rit	!	!
.	.	16B-^^</KL 16g 16b-	.	>
4r	.	8.A^^</ 8.f 8.a	.	.
.	.	16G^^</Jk 16e- 16g	.	]]
!!LO:LB:g=original	!	!	!	!
=42	=42	=42	=42	=42
!	!	!LO:TX:a:i:t=a tempo	!	!
8BBB-/ 8BB-	.	(24d^^</LL 24f	.	p <
.	.	24F/	.	.
.	.	24d/ 24f	.	.
8r	.	24f/	.	.
.	.	24dd/ 24ff	.	.
.	.	24ff/JJ)	.	.
8F\ 8B- 8d	.	8ddd`\ 8fff	.	[
8rFF	.	16r	.	.
.	.	16F<'/ 16d 16f	.	.
4rCC	.	(8En<^/L 8c 8en	.	.
.	.	8F</J) 8d 8f	.	.
=43	=43	=43	=43	=43
8BBB-/ 8BB-	.	(24d^^</LL 24f	.	<
.	.	24F/	.	.
.	.	24d/ 24f	.	.
8r	.	24f/	.	.
.	.	24dd/ 24ff	.	.
.	.	24ff/JJ)	.	.
8F\ 8B- 8d	.	8ddd`\ 8fff	.	[
8r	.	16r	.	.
.	.	16d'/ 16f 16dd	.	.
4r	.	(8.e-^/L 8.g 8.ee-	.	.
.	.	16d/Jk) 16f 16dd	.	.
=44	=44	=44	=44	=44
8FFF/ 8FF	.	(24f^^</LL 24dd	.	<
.	.	24D/ 24F	.	.
.	.	24c/ 24e- 24f	.	.
8r	.	24f/	.	.
.	.	24cc/ 24ee- 24ff	.	.
.	.	24ff/JJ)	.	.
8F\ 8A 8e-	.	8ccc\ 8eee- 8fff	.	[
8r	.	16r	.	.
.	.	16c'/ 16cc	.	.
4r	.	(8G^/L 8g	.	.
.	.	8A/J) 8a	.	.
!!LO:LB:g=original	!	!	!	!
=45	=45	=45	=45	=45
8BBB-/ 8BB-	.	(24d^^/LL 24b-	.	<
.	.	24B-/	.	.
.	.	24d/ 24b-	.	.
8r	.	24b-/	.	.
.	.	24dd/ 24bb-	.	.
.	.	24bb-/JJ)	.	.
*	*	*8va	*	*
8B-\ 8d	.	4ddd`\ 4bbb-	.	[
8r	.	.	.	.
*	*	*X8va	*	*
4BBB-^^/ 4BB-	.	4r	.	.
=46||	=46||	=46||	=46||	=46||
*ped	*	*	*	*
8FFF#X/ 8FF#X	.	(24a^^</LL 24cc 24dd	.	<
.	.	24d/	.	.
.	.	24a/ 24cc 24dd	.	.
8r	.	24dd/	.	.
.	.	24aa/ 24ccc 24ddd	.	.
.	.	24ddd/JJ)	.	.
*Xped	*	*8va	*	*
8D`\ 8F#X 8A 8c 8d	.	8aaa`\ 8cccc 8dddd	.	[
8r	.	16r	.	.
*	*	*X8va	*	*
.	.	16d'/ 16dd	.	.
4r	.	8.e-^/L 8.ee-	.	.
.	.	16d/Jk 16dd	.	.
=47	=47	=47	=47	=47
*ped	*	*	*	*
8GGG/ 8GG	.	(24g^^</LL 24b- 24dd	.	<
.	.	24d/	.	.
.	.	24g/ 24b- 24dd	.	.
8r	.	24dd/	.	.
.	.	24gg/ 24bb- 24ddd	.	.
.	.	24ddd/JJ)	.	.
*Xped	*	*8va	*	*
8D`\ 8G 8B- 8d	.	8ggg`\ 8bbb- 8dddd	.	[
8r	.	16r	.	.
*	*	*X8va	*	*
.	.	16d'/ 16dd	.	.
4r	.	(8.e-^/L 8.ee-	.	.
.	.	16d/Jk) 16dd	.	.
!!LO:LB:g=original	!	!	!	!
=48	=48	=48	=48	=48
*ped	*	*	*	*
8FFFn/ 8FFn	.	(24f^^</LL 24a 24cc	.	<
.	.	24c/	.	.
.	.	24f/ 24a 24cc	.	.
8r	.	24cc/	.	.
.	.	24ff/ 24aa 24ccc	.	.
.	.	24ccc/JJ)	.	.
*Xped	*	*8va	*	*
8F`\ 8A 8e-	.	8fff\ 8aaa 8cccc	.	[
*	*	*X8va	*	*
8r	.	16r	.	.
.	.	16F'/ 16f	.	.
4r	.	(8.G^/L 8.g	.	.
.	.	16F/Jk) 16f	.	.
=49	=49	=49	=49	=49
8FFF/ 8FF	.	(24c^^</LL 24e- 24f	.	<
.	.	24F/	.	.
.	.	24c/ 24e- 24f	.	.
8r	.	24f/	.	.
.	.	24cc/ 24ee- 24ff	.	.
.	.	24ff/JJ)	.	.
8F\ 8A 8e-	.	16ccc`\ 16eee- 16fff	.	[
.	.	16r	.	.
!	!	!LO:TX:b:i:t=poco rit	!	!
8r	.	(16F/LL 16f	.	.
.	.	32En/L 32en	.	.
.	.	32F/JJJ) 32f	.	.
4r	.	(8.G-X;</L 8.g-X	.	.
.	.	16F/Jk) 16f	.	.
!!LO:PB:g=original	!	!	!	!
=50	=50	=50	=50	=50
!	!	!LO:TX:i:a:t=a tempo.	!	!
8BBB-/ 8BB-	.	(24d^^</LL 24f	.	p <
.	.	24F/	.	.
.	.	24d/ 24f	.	.
8r	.	24f/	.	.
.	.	24dd/ 24ff	.	.
.	.	24ff/JJ)	.	.
8F\ 8B- 8d	.	8ddd`\ 8fff	.	[
8r	.	16r	.	.
.	.	16F<'/ 16d 16f	.	f
4rDD	.	(8En</L 8c#X 8en	.	.
.	.	8F</J) 8d 8f	.	.
=51	=51	=51	=51	=51
8BBB-/ 8BB-	.	(24d^^</LL 24f	.	p <
.	.	24F/	.	.
.	.	24d/ 24f	.	.
8r	.	24f/	.	.
.	.	24dd/ 24ff	.	.
.	.	24ff/JJ)	.	.
8F\ 8B- 8d	.	8ddd`\ 8fff	.	[
8r	.	16r	.	.
.	.	16B-'/ 16b-	.	.
!	!	!LO:TX:t=P:problem: ^ zapisane w odbiciu lustrzanym	!	!
4r	.	(8.d^/L 8.dd	.	.
.	.	32c/LL 32cc	.	.
.	.	32B-/JJJ) 32b-	.	.
!!LO:LB:g=original	!	!	!	!
=52	=52	=52	=52	=52
8FFF/ 8FF	.	(24a^^\LL 24ee- 24ff	.	<
.	.	24f\	.	.
.	.	24a\ 24ee- 24ff	.	.
8r	.	24ff\	.	.
.	.	24ccc\ 24eee- 24fff	.	.
.	.	24fff\JJ)	.	.
*	*	*8va	*	*
8F\ 8A 8e-	.	8cccc`\ 8eeee- 8ffff	.	[
*	*	*X8va	*	*
8r	.	16r	.	.
.	.	16e-/ 16ee-	.	.
4r	.	(8G^/L 8g	.	.
.	.	8A/J) 8a	.	.
=53	=53	=53	=53	=53
8BBB-/ 8BB-	.	(24d^^</LL 24b-	.	<
.	.	24B-/	.	.
.	.	24d/ 24b-	.	.
8r	.	24b-/	.	.
.	.	24dd/ 24bb-	.	.
.	.	24bb-/JJ)	.	.
*	*	*8va	*	*
8B-\ 8d	.	8ddd`\ 8bbb-	.	[
*	*	*X8va	*	*
8r	.	8r	.	.
4BBB-^^/ 4BB-	.	4r	.	.
!!LO:LB:g=original	!	!	!	!
=54	=54	=54	=54	=54
*ped	*	*	*	*
8FFF#X/ 8FF#X	.	(24a^^\LL 24cc 24dd	.	p <
.	.	24d\	.	.
.	.	24a\ 24cc 24dd	.	.
8r	.	24dd\	.	.
.	.	24aa\ 24ccc 24ddd	.	.
.	.	24ddd\JJ)	.	.
*Xped	*	*8va	*	*
8D\ 8F#X 8A 8c 8d	.	8aaa`\ 8cccc 8dddd	.	[
8r	.	16r	.	.
*	*	*X8va	*	*
.	.	16d'/ 16dd	.	f
4r	.	(8.e-^/L 8.ee-	.	.
.	.	16d/Jk 16dd)	.	.
=55	=55	=55	=55	=55
*ped	*	*	*	*
8GGG/ 8GG	.	(24g^^\LL 24b- 24dd	.	<
.	.	24d\	.	.
.	.	24g\ 24b- 24dd	.	.
8r	.	24dd\	.	.
.	.	24gg\ 24bb- 24ddd	.	.
.	.	24ddd\JJ)	.	.
*Xped	*	*8va	*	*
8D\ 8G 8B- 8d	.	8ggg`\ 8bbb- 8dddd	.	[
8r	.	16r	.	.
*	*	*X8va	*	*
.	.	16d'/ 16dd	.	.
4r	.	(8.e-^/L 8.ee-	.	.
.	.	16d/Jk) 16dd	.	.
!!LO:LB:g=original	!	!	!	!
=56	=56	=56	=56	=56
*	*	*	*	*^
*ped	*	*	*	*	*
8FFFn/ 8FFn	.	(24f^^\LL 24a 24cc	.	<	.
.	.	24c\	.	.	.
!	!	!	!	!	!LO:HP:b:t=cresc
.	.	24f\ 24a 24cc	.	.	<
8r	.	24ff\	.	.	.
.	.	24aa\ 24ccc 24fff	.	.	.
.	.	24fff\JJ)	.	.	.
*Xped	*	*8va	*	*	*
8F\ 8A 8e-	.	8aaa\ 8cccc 8ffff	.	[	.
*	*	*X8va	*	*	*
8r	.	16r	.	.	.
.	.	16f'/ 16ff	.	.	.
4r	.	(8.g^\L 8.gg	.	.	.
.	.	16f\Jk) 16ff	.	.	.
*	*	*	*	*v	*v
=57	=57	=57	=57	=57
8FFF/ 8FF	.	(24cc^^\LL 24ee- 24ff	.	<
.	.	24f\	.	.
.	.	24cc\ 24ee- 24ff	.	.
8r	.	24ff\	.	.
.	.	24ccc\ 24eee- 24fff	.	.
.	.	24fff\JJ)	.	.
*	*	*8va	*	*
8F\ 8A 8e-	.	16cccc`\ 16eeee- 16ffff	.	[
.	.	16r	.	.
*	*	*X8va	*	*
!	!	!LO:TX:b:i:t=poco rit	!	!
8r	.	16f\LL 16ff	.	.
.	.	(32en\L 32een	.	.
.	.	32f\JJJ) 32ff	.	.
.	.	16qa-X;/ 16qaa-X	.	.
4r	.	(8.g-X^;\L 8.gg-X	.	.
.	.	16f\Jk) 16ff	.	.
!!LO:LB:g=original	!	!	!	!
=58	=58	=58	=58	=58
!	!	!LO:TX:a:i:t=à tempo	!	!
8BBB-/ 8BB-	.	(24dd^^\LL 24ff	.	p <
.	.	24f\	.	.
.	.	24dd\ 24ff	.	.
8r	.	24ff\	.	.
.	.	24ddd\ 24fff	.	.
.	.	24fff\JJ)	.	.
*	*	*8va	*	*
8F\ 8B- 8d	.	8dddd`\ 8ffff	.	[
*	*	*X8va	*	*
8r	.	16r	.	.
.	.	16f\ 16dd 16ff	.	f
4r	.	(8en^\L 8cc#X 8een	.	.
.	.	8f\J) 8dd 8ff	.	.
=59	=59	=59	=59	=59
8BBB-/ 8BB-	.	(24dd^^\LL 24ff	.	p <
.	.	24f\	.	.
.	.	24dd\ 24ff	.	.
8r	.	24ff\	.	.
.	.	24ddd\ 24fff	.	.
.	.	24fff\JJ)	.	.
*	*	*8va	*	*
8F\ 8B- 8d	.	8dddd`\ 8ffff	.	[
8r	.	16r	.	.
*	*	*X8va	*	*
.	.	16b-'\ 16bb-	.	.
4r	.	(8.dd^\L 8.ddd	.	.
.	.	32cc\LL 32ccc	.	.
.	.	32b-\JJJ) 32bb-	.	.
!!LO:PB:g=original	!	!	!	!
=60	=60	=60	=60	=60
*ped	*	*	*	*
!	!	!LO:TX:i:b:t=leggiero	!	!
8FFF/ 8FF	.	(24aa\LL 24eee- 24fff	.	.
.	.	24ff\	.	.
.	.	24aa\ 24eee- 24fff	.	.
*	*	*	*above	*
8r	.	24fff\	1	.
*	*	*8va	*	*
.	.	24ffff\	5	.
.	.	24eeee-\JJ	4	.
8F\ 8c 8e-	.	24cccc\LL	3	.
.	.	24aaa\	2	.
*	*	*X8va	*	*
.	.	24fff\	1	.
8r	.	24eee-\	4	.
.	.	24ccc\	.	.
.	.	24aa\JJ	.	.
*Xped	*	*	*	*
4r	.	(8gg^\L)	.	.
.	.	8aa\J)	.	.
=61	=61	=61	=61	=61
*ped	*	*	*	*
4B-\ 4d	.	(8bb-T\L	3	<
.	.	(16qqaa/LL	.	.
.	.	16qqbb-/JJ)	.	.
.	.	32ddd\LL	5	.
.	.	32bb-\	4	.
.	.	32ff\	2	.
.	.	32dd\JJJ	1	.
4r	.	24b-\LL	4	[ >
.	.	24f\	.	.
.	.	24d\	.	.
.	.	24B-</	.	]
.	.	24F</	.	.
.	.	24D</JJ)	.	.
8BBB-;</ 8BB-	.	8r;	.	.
*Xped	*	*	*	*
!!LO:LB:g=original	!	!	!	!
=||	=||	=||	=||	=||
*ped	*	*	*	*
8r	.	8f\ 8ff	.	.
=62	=62	=62	=62	=62
*	*	*^	*	*
*	*	*tuplet	*Xtuplet	*	*
!	!	!LO:TX:i:b:t=con disperazione	!	!	!
!	!	!LO:TX:a:B:t=Un poco meno mosso	!	!	!
!	!	!LO:TUP:a:problem:klamra łukowa	!	!	!
8FFF/ 8FF	.	12g-X\L 12gg-X	12ryy	.	p
.	.	12b-yy\ 12ee-yy	12b-/ 12ee-	.	.
8r	.	.	.	.	.
.	.	12f\J 12ff	12ryy	.	.
4F^\ 4A 4e-	.	(4.cc^:\ 4.ee-: 4.ccc:	4.ryy	.	.
4F\ 4A 4e-	.	.	.	.	.
.	.	8f\) 8ff	8ryy	.	.
*Xped	*	*	*	*	*
=63	=63	=63	=63	=63	=63
!	!	!LO:TUP:a:problem:klamra łukowa	!	!	!
8BBB-/ 8BB-	.	12g-X\L 12gg-X	12ryy	.	.
.	.	12b-yy\ 12dd-Xyy	12b-/ 12dd-X	.	.
*ped	*	*	*	*	*
8r	.	.	.	.	.
.	.	12f\J 12ff	12ryy	.	.
4F\ 4B- 4d-X	.	(4.b-^:\ 4.dd-: 4.bb-:	4.ryy	.	.
4F\ 4B- 4d-	.	.	.	.	.
.	.	[8f\) [8ff	8ryy	.	.
*Xped	*	*	*	*	*
*	*	*v	*v	*	*
=64	=64	=64	=64	=64
!	!	!LO:TUP:a:problem:klamra łukowa	!	!
8FFF/ 8FF	.	12f\L] 12ff]	.	.
.	.	12g-X^<\ 12gg-X	.	.
8r	.	.	.	.
.	.	12f\J 12ff	.	.
4F\ 4c 4e-	.	(4.A^/ 4.a	.	.
4F\ 4A 4c 4e-	.	.	.	.
.	.	8c/) 8cc	.	.
!!LO:LB:g=original	!	!	!	!
=65	=65	=65	=65	=65
*	*	*tuplet	*	*
!LO:N:vis=4	!	!LO:TUP:a:problem:klamra łukowa	!	!
8BBB-/ 8BB-	.	12e-\L 12ee-	.	.
.	.	12g-X\ 12gg-X	.	.
8r	.	.	.	.
.	.	12f\J 12ggn	.	.
4F\ 4d-X	.	(4.B-/ 4.b-	.	.
4F\ 4B- 4d-	.	.	.	.
.	.	8d-X/) 8dd-X	.	.
=66	=66	=66	=66	=66
*	*	*^	*	*
*	*	*	*Xtuplet	*	*
!	!	!LO:TUP:a:problem:klamra łukowa	!	!	!
8FFF/ 8FF	.	12g-X\L 12gg-X	12ryy	.	.
.	.	12b-yy\ 12ee-yy	12b-/ 12ee-	.	.
8r	.	.	.	.	.
.	.	12f\J 12ff	12ryy	.	.
4F'\ 4c 4e-	.	(4.ff:\ 4.aa: 4.fff:	4.ryy	.	.
4F'\ 4c 4e-	.	.	.	.	.
.	.	8e-^^</) 8ee-	8ryy	.	.
=67	=67	=67	=67	=67	=67
*	*	*tuplet	*Xtuplet	*	*
!	!	!LO:TUP:a:problem:klamra łukowa	!	!	!
8BBB-/ 8BB-	.	12e-\L 12ee-	12ryy	.	.
.	.	12fyy\ 12b-yy	12f/ 12b-	.	.
8r	.	.	.	.	.
.	.	12d-X\J 12dd-X	12ryy	.	.
4F\ 4B- 4d-X	.	(4.b-^:\ 4.dd-: 4.bb-:	4.ryy	.	.
4F\ 4B- 4d-	.	.	.	.	.
.	.	8B-/) 8b-	8ryy	.	.
*	*	*v	*v	*	*
=68	=68	=68	=68	=68
*ped	*	*	*	*
!	!	!	!	!LO:HP:b:t=piu cresc
8EE-/ 8E-	.	8c-X/ 8g-X 8cc-X	.	<
8r	.	8r	.	.
4E-\ 4c-X	.	4.g-^^\ 4.cc- 4.gg-X	.	.
4E-\ 4c-	.	.	.	.
.	.	8g-\ 8cc- 8gg-	.	.
*Xped	*	*	*	*
!!LO:LB:g=original	!	!	!	!
=69	=69	=69	=69	=69
*ped	*	*	*	*
8FFF/ 8FF	.	(4.f^\ 4.a 4.ee- 4.ff	.	ff
8r	.	.	.	.
8F\ 8A 8e-	.	.	.	.
!	!	!LO:TUP:b:problem:klamra łukowa	!	!
*Xped	*	*	*	*
8r	.	48c/LLL 48cc	.	.
.	.	48d-X/ 48dd-X	.	.
.	.	48c/ 48cc	.	.
.	.	48Bn/ 48bn	.	.
.	.	48c/ 48cc	.	.
.	.	48e-/JJJ 48ee-	.	.
4r	.	(8.dn^/L 8.ddn	.	.
.	.	16c/Jk 16cc)	.	.
=70	=70	=70	=70	=70
*^	*	*^	*	*
8BBB-/ 8BB-	8ryy	.	8B-/) 8b-	8ryy	.	.
8r;	8ryy	.	8r;	8ryy	.	.
*Xtuplet	*	*	*	*	*	*
*ped	*	*	*	*	*	*
56EEn\LLL 56En	4ryy	.	56r	4ryy	.	f <
56r	.	.	56en\LLL 56een	.	.	.
56FF\ 56F	.	.	56r	.	.	.
56r	.	.	56f\ 56ff	.	.	.
*	*	*below	*	*	*	*
56GG-X\ 56G-X	.	1 4	56r	.	.	.
*	*	*	*	*	*above	*
56r	.	.	56g-X\ 56gg-X	.	1 4	.
56GGn\ 56Gn	.	1 5	56r	.	.	.
56r	.	.	56gn\ 56ggn	.	1 5	[ >
56AA-X\ 56A-X	.	1 4	56r	.	.	.
56r	.	.	56a-X\ 56aa-X	.	1 4	.
56AAn\ 56An	.	.	56r	.	.	.
56r	.	.	56an\ 56aan	.	.	.
56FF\JJJ 56F	.	.	56r	.	.	.
*Xped	*	*	*	*	*	*
56r	.	.	56f\JJJ 56ff	.	.	.
!	!	!	!LO:N:vis=32..	!	!	!
[4F/	8r	.	(8..dd-X/L	8r	5	]
!	!	!	!LO:TX:b:i:t=poco rit	!	!	!
*	*	*	*	*	*	*^
.	(8FF\	.	.	8e-X\ 8a	.	p	.
!	!	!	!LO:N:vis=8	!	!	!	!
.	.	.	32cc/Jkk)	.	5	.	.
!!LO:LB:g=original	!	!	!	!	!	!	!
=71	=71	=71	=71	=71	=71	=71	=71
8F/]	8BB-\)	.	8d-X/ 8b-	8ryy	1 4	.	.
8r;	8ryy	.	8r;	8ryy	.	.	.
56rcyy	4EEEn\ 4EEn	.	56rd	4ryy	.	.	.
56rCC	.	.	56En</LLL 56en	.	.	f	.
!	!	!	!LO:TX:b:i:t=veloce	!	!	!	!
*ped	*	*	*	*	*	*	*
56FFF\LLL 56FF	.	.	56rd	.	.	.	.
56rCC	.	.	56F</ 56f	.	.	.	.
56GGG-X\ 56GG-X	.	.	56rd	.	.	.	.
*	*	*below	*	*	*above	*	*
56rCC	.	.	56G-X</ 56g-X	.	1 4	.	.
56GGGn\ 56GGn	.	1 4	56rd	.	.	.	.
56rCC	.	.	56Gn</ 56gn	.	1 5	.	.
56AAA-X\ 56AA-X	.	1 5	56rd	.	.	.	.
56rCC	.	.	56A-X</ 56a-X	.	1 4	.	.
56AAAn\ 56AAn	.	.	56rd	.	.	.	.
56rCC	.	.	56An</ 56an	.	.	.	.
56FFF\JJJ 56FF	.	.	56rd	.	.	.	.
*Xped	*	*	*	*	*	*	*
56rCC	.	.	56F</JJJ 56f	.	.	.	.
4ryy	8rDD	.	8..dn</L	8rC<	5	.	.
!	!	!	!LO:TX:b:i:t=poco rit	!	!	!	!
.	8FFF\ 8FF	.	.	8E-X<;>\ 8A<	.	.	.
.	.	.	32c</Jkk	.	5	.	.
*v	*v	*	*	*	*	*	*
*	*	*v	*v	*	*	*
*	*	*	*	*v	*v
=72	=72	=72	=72	=72
*	*	*	*below	*
8BBB-\	.	8Dn</ 8B-<	1 4	.
8rDD	.	8rB<	.	.
*8va	*	*	*	*
8B-:\ 8f: 8b-:	.	8dd^^`:\ 8ff: 8ddd:	.	f
8r	.	8r	.	.
*X8va	*	*	*	*
8C\ 8F 8d	.	8b-^^`\ 8dd 8ff 8bb-	.	.
!LO:TX:b:i:B:t=Fine.	!	!	!	!
8r	.	8r	.	.
==	==	==	==	==
*-	*-	*-	*-	*-
!!!system-decoration: {(s1,s2)}
!!!RDF**kern: N = linked
!!!RDF**kern: > = above
!!!RDF**kern: < = below
!!!ENC: Berenika Jozajtis
!!!END: 2022-08-15
!!!ENC: Jan Barakat
!!!END: 2022-09-16
